X:1
T:Mr. James Taylor (musician, late of Keith)
T:Mr. James Taylor (musician, late of Keith)
T:Alexander Walker
C:Alexander Walker
L:1/8
M:2/2
K:F
V:1 treble 
V:1
 f | cFAF c2 Ac | fccA BGGB | cFAF c2 Ac | dgce fFF :| c | f2 cf Afcf | f2 cA BGGc | f2 cf AfcA | %9
 DGCE (F2 F)e | f2 cf Afcf | bagf egga | faeg dfcA | BdGc AFF || %14

